remix/Business/bookmark-3-line.svg

<svg viewBox="0 0 24 24" fill="currentColor" xmlns="http://www.w3.org/2000/svg"><path d="M4 2H20C20.5523 2 21 2.44772 21 3V22.2763C21 22.5525 20.7761 22.7764 20.5 22.7764C20.4298 22.7764 20.3604 22.7615 20.2963 22.7329L12 19.0313L3.70373 22.7329C3.45155 22.8455 3.15591 22.7322 3.04339 22.4801C3.01478 22.4159 3 22.3465 3 22.2763V3C3 2.44772 3.44772 2 4 2ZM19 19.9645V4H5V19.9645L12 16.8412L19 19.9645ZM12 13.5L9.06107 15.0451L9.62236 11.7725L7.24472 9.45492L10.5305 8.97746L12 6L13.4695 8.97746L16.7553 9.45492L14.3776 11.7725L14.9389 15.0451L12 13.5Z"/></svg>

<svg viewBox="0 0 24 24" xmlns="http://www.w3.org/2000/svg"><path fill="none" d="M0 0h24v24H0Z"/><path d="M4 2h16v0c.55 0 1 .44 1 1v19.276 0c0 .27-.23.5-.5.5 -.08 0-.15-.02-.21-.05l-8.296-3.71 -8.296 3.7 -.001-.001c-.26.11-.55-.01-.67-.26 -.03-.07-.05-.14-.05-.21V2.96v0c0-.56.44-1 1-1Zm15 17.96V3.99H5v15.96l7-3.13 7 3.12Zm-7-6.47L9.061 15.03l.56-3.28L7.24 9.43l3.28-.48 1.46-2.98 1.47 2.97 3.28.47 -2.38 2.31 .56 3.27 -2.94-1.545Z"/></svg>
